X:4980
T:Padraig O'Keeffes (1)
O:england
R:Slide
M:6/8
S:Noel Hill, Clare (concertina)
D:Tape of concert in Dublin '91
K:G
BGA EGD | ~E3 DEG | BAG EDE | c3 B2A | BGA EGD | ~E3 D2E | GBA GBA | G3 G2A ::
G2G B2d | ege d2B | G2G B2d | e3 g3 | G2G B2d | ege d2A | BAG EDE | c3 B2A :|
